!!!COM: Bach, Johann Sebastian
!!!OPR: Joh. Seb. Bachs vierstimmige Choralgesänge
!!!XEN: Four-part Chorales
!!!OTL: 2. Ach Gott, erhör' mein Seufzen und Wehklagen
!!!SCT: BWV 254
!!!SCA: Thematisch-systematisches Verzeichnis der musikalischen Werke Johann Sebastian Bach: Bach-Werke-Verzeichnis (Schmieder)
!!!YOR: Bach Gesellschaft Edition xxxix
!!!ENC: Steven Rasmussen
!!!CDT: 1685/3//-1750/7/28/
!!!OCY: Deutschland
!!!YEC: Copyright (c) 1994, 2000 Center for Computer Assisted Research in the Humanities
!!!YEM: Rights to all derivative editions reserved
!!!YEN: United States of America
**kern	**kern	**kern	**kern	**silbe
*I:[BASSO]	*I:[TENORE]	*I:[ALTO]	*I:[SOPRANO]	*I:[SOPRANO]
*clefF4	*clefGv2	*clefG2	*clefG2	*
*k[]	*k[]	*k[]	*k[]	*
*a:	*a:	*a:	*a:	*
*M4/4	*M4/4	*M4/4	*M4/4	*
4D	4F	4A	4d	Ach
=1	=1	=1	=1	=1
4D	4A	8dL	4f	Gott,
.	.	8eJ	.	.
4AA	4c	4f	4f	er-
4BB-	4d	4f	4g	-hÃ¶r'
4C	8cL	8eL	4g	mein
.	8B-J	8dJ	.	.
=2	=2	=2	=2	=2
8FL	8AL	4c	4a	Seuf-
8EJ	8GJ	.	.	.
4D	4F	4d	4a	-zen
4GG	8FL	8dL	4b-	und
.	8EJ	8gJ	.	.
4AA	4c	8gL	4a	Weh-
.	.	8fJ	.	.
=3	=3	=3	=3	=3
4BB-	8dL	8fL	2g	-kla-
.	8G	16eL	.	.
.	.	16dJJ	.	.
4C	8c	4e	.	.
.	8B-J	.	.	.
4FF;	4A;	4c;	4f;	-gen,
8FL	8FL	8AL	4c	lass
8EJ	8GJ	8GJ	.	.
=4	=4	=4	=4	=4
8DL	4A	4F	4f	mich
8CJ	.	.	.	.
8BB-L	4B-	4d	4f	in
8AAJ	.	.	.	.
8GGL	8B-L	4d	4g	mei-
8FFJ	8AJ	.	.	.
4EE	4G	4c	4g	-ner
=5	=5	=5	=5	=5
8FFL	4F	4c	4a	Not
8GGJ	.	.	.	.
8AAL	4c	4f	4a	nicht
8BB-J	.	.	.	.
4C	8.cL	8fL	4g	gar
.	.	8eJ	.	.
.	16B-Jk	.	.	.
4D	4A	8eL	4f	ver-
.	.	8dJ	.	.
=6	=6	=6	=6	=6
4GG	4B-	4d	2e	-za-
4AA	8AL	4c#	.	.
.	8GJ	.	.	.
4DD;	4F;	4A;	4d;	-gen,
4C#	4A	4e	4a	du
=7	=7	=7	=7	=7
4D	4A	8eL	4f	weisst
.	.	8dJ	.	.
4GG	4B-	8dL	4g	mein'n
.	.	8eJ	.	.
4AA;	4A;	4c#;	4e;	Schmerz,
4C	4A	4e	4a	er-
=8	=8	=8	=8	=8
4C	4A	8dL	4f	-kennst
.	.	8cJ	.	.
4BB	4G	4d	4g	mein
4C;	4G;	4c;	4e;	Herz,
8CL	4G	4c	4e	hast
8BB-J	.	.	.	.
=9	=9	=9	=9	=9
8AAL	4A	4c	4f	du
8FFJ	.	.	.	.
8DL	4A	4d	4f	mir's
8CJ	.	.	.	.
8BB-L	4B-	4d	4g	auf-
8AAJ	.	.	.	.
8GGL	8B-L	4e	4g	-er-
8CJ	16cL	.	.	.
.	16B-JJ	.	.	.
=10	=10	=10	=10	=10
8FL	4A	8eL	4a	-legt,
8EJ	.	16dL	.	.
.	.	16eJJ	.	.
4D	8dL	4f	4a	so
.	8cJ	.	.	.
8DL	4B-	4e	4g	hilf
8C#J	.	.	.	.
4D	4A	8eL	4f	mir's
.	.	8dJ	.	.
=11	=11	=11	=11	=11
4GG	4B-	4d	2e	tra-
4AA	8AL	4c#	.	.
.	8GJ	.	.	.
4DD;	4F#;	4A;	4d;	-gen!
==|!	==|!	==|!	==|!	==|!
*-	*-	*-	*-	*-
!!!RWG: Key is interpreted using the Humdrum key tool.
!!!END: 1994/05/03
!!!URL-pdf: https://s9.imslp.org/files/imglnks/usimg/6/6b/IMSLP24489-PMLP09471-CCARH_Bach_Chorales.pdf#page=1 Musedata edition
!!!URL-pdf: https://s9.imslp.org/files/imglnks/usimg/7/7a/IMSLP04155-Bach_-_BGA_253-438.pdf#page=3 	Bach-Gesellschaft Ausgabe, Band 39 (pp.175-276) Leipzig: Breitkopf und Härtel, 1892. Plate B.W. XXXIX.
!!!EMD: Converted from MuseData to Humdrum Dec 19, 2000, by Andreas Kornstaedt using muse2kern.
!!!EED: Craig Stuart Sapp
!!!EEV: 2024/03/31
!!!EED: Craig Stuart Sapp
!!!EEV: 2024/03/31
!!!ONB: Some non-unicode characters
!!!filter-keyboard: satb2gs
